public/img/geo-shape-05.svg

<svg xmlns="http://www.w3.org/2000/svg" viewBox="0 0 149.788 149.999"><path d="M149.788,150V148.31A31.024,31.024,0,0,1,139.914,150h9.874m0-6.595v-7.755c-11.752,10.161-19.283,13.782-29.847,14.35h9.986c7.2-.428,11.28-1.488,19.861-6.595m0-18v-12.36c-19.8,25.768-33.767,36.128-49.821,36.951h9.987c22.877-1.359,39.747-24.363,39.834-24.591m0-26.475V83.427c-29.455,46.893-49.024,65.558-69.8,66.572H89.98c31.638-1.88,59.659-50.582,59.808-51.066m0-31.84V51.55c-10.36,15.707-19.617,32.11-30.171,47.7-10.308,15.222-17.026,23.175-20.114,26.561C84.182,142.609,73.112,149.392,60.02,150h9.987c38.567-2.291,79.556-82.111,79.781-82.906m0-29.709V24.961c-26.662,31.442-43.157,69.965-70.4,101C59.026,149.167,45.726,149.75,40.047,150h9.986c9.217-.548,20.687-2.979,40.228-25.04,8.5-9.592,18.647-23.893,30.171-42.507,15.356-24.8,15.356-24.8,16.762-26.961,4.014-6.164,10.2-10.816,12.594-18.107m0-22.739V6.8c-11.246,7.83-25.592,20.059-53.637,66.332C67.859,119.815,45.264,148.956,20.074,150H30.06C48.429,148.908,68,136.073,103.811,76.98c16.544-27.3,30.006-47.249,45.977-62.335m0-12.845V0c-18.313,1.225-37.864,14.17-73.751,73.366C47.8,119.952,25.241,149.021.1,150h9.987c18.369-1.091,37.94-13.926,73.751-73.019,24.327-40.143,43.845-66.722,65.95-75.18M139.8,0h-9.987C111.5,1.225,91.951,14.17,56.064,73.366,35.668,107.01,19.174,130.461,0,143.4v4.908c14.044-5.477,31.48-17.874,63.694-71.044C92.035,30.484,114.652,1.243,139.8,0M119.828,0h-9.986C103.13.449,90.636,1.285,69.614,25.283,42.663,56.05,26.614,94.393,0,125.394v10.244c6.864-6.511,19.642-18.63,43.58-58.145C71.976,30.621,94.636,1.308,119.828,0M99.854,0H89.868C84.356.369,71.449,1.232,52.993,21.547A223.912,223.912,0,0,0,32.879,47.234C21.334,64.089,11.288,81.9,0,98.914v14.117c21.169-28.8,36.5-61.58,60.341-88.564C81.052,1.022,93.752.332,99.854,0M79.881,0H69.9C48.922,1.4,29.325,20.209,0,67.073V83.408C25.838,41.381,50.243,1.685,79.881,0M59.908,0H49.921C36.381.906,22.71,7.607,0,37.367V51.531C24.483,15.553,41.279,1.105,59.908,0M39.935,0H29.948C20.656.622,13.132,3.138,0,14.634V24.946C15.661,7.592,26.484.831,39.935,0M19.962,0H9.974A31.066,31.066,0,0,0,0,1.8v5C8.167,1.891,12.272.494,19.962,0" fill="#0e8743"/></svg>

<?xml version="1.0" encoding="utf-8"?>
<!-- Generator: Adobe Illustrator 24.1.0, SVG Export Plug-In . SVG Version: 6.00 Build 0)  -->
<svg version="1.1" id="Layer_1" xmlns="http://www.w3.org/2000/svg" xmlns:xlink="http://www.w3.org/1999/xlink" x="0px" y="0px"
	 viewBox="0 0 149.8 150" style="enable-background:new 0 0 149.8 150;" xml:space="preserve">
<style type="text/css">
	.st0{fill:#0E8743;}
	.st1{fill:none;stroke:#0E8743;stroke-width:2;stroke-miterlimit:10;}
	.st2{fill:none;stroke:#0E8743;stroke-width:4;stroke-miterlimit:10;}
	.st3{fill:none;stroke:#0E8743;stroke-miterlimit:10;}
</style>
<g id="XMLID_11103_">
	<path id="XMLID_11119_" class="st0" d="M149.8,150c0,0,0-0.6,0-1.7c-4.9,1.4-5,1.4-9.9,1.7H149.8 M149.8,143.4c0-2.1,0-4.7,0-7.8
		c-11.8,10.2-19.3,13.8-29.8,14.4h10C137.1,149.6,141.2,148.5,149.8,143.4 M149.8,125.4c0-3.8,0-7.9,0-12.4
		C130,138.8,116,149.2,100,150h10C132.8,148.6,149.7,125.6,149.8,125.4 M149.8,98.9c0-5,0-10.1,0-15.5c-29.5,46.9-49,65.6-69.8,66.6
		h10C121.6,148.1,149.6,99.4,149.8,98.9 M149.8,67.1c0-5.4,0-10.6,0-15.5c-10.4,15.7-19.6,32.1-30.2,47.7
		c-10.3,15.2-17,23.2-20.1,26.6C84.2,142.6,73.1,149.4,60,150h10C108.6,147.7,149.6,67.9,149.8,67.1 M149.8,37.4c0-4.5,0-8.6,0-12.4
		c-26.7,31.4-43.2,70-70.4,101C59,149.2,45.7,149.7,40,150h10c9.2-0.5,20.7-3,40.2-25c8.5-9.6,18.6-23.9,30.2-42.5
		c15.4-24.8,15.4-24.8,16.8-27C141.2,49.3,147.4,44.7,149.8,37.4 M149.8,14.6c0-3,0-5.7,0-7.8c-11.2,7.8-25.6,20.1-53.6,66.3
		C67.9,119.8,45.3,149,20.1,150h10c18.4-1.1,37.9-13.9,73.8-73C120.4,49.7,133.8,29.7,149.8,14.6 M149.8,1.8c0-1.2,0-1.8,0-1.8
		C131.5,1.2,111.9,14.2,76,73.4C47.8,120,25.2,149,0.1,150h10c18.4-1.1,37.9-13.9,73.8-73C108.2,36.8,127.7,10.3,149.8,1.8 M139.8,0
		h-10C111.5,1.2,92,14.2,56.1,73.4C35.7,107,19.2,130.5,0,143.4c0,2.1,0,3.8,0,4.9c14-5.5,31.5-17.9,63.7-71
		C92,30.5,114.7,1.2,139.8,0 M119.8,0h-10c-6.7,0.4-19.2,1.3-40.2,25.3C42.7,56,26.6,94.4,0,125.4c0,3.8,0,7.2,0,10.2
		c6.9-6.5,19.6-18.6,43.6-58.1C72,30.6,94.6,1.3,119.8,0 M99.9,0h-10C84.4,0.4,71.4,1.2,53,21.5c-3.1,3.4-10.2,11.3-20.1,25.7
		C21.3,64.1,11.3,81.9,0,98.9c0,5,0,9.7,0,14.1c21.2-28.8,36.5-61.6,60.3-88.6C81.1,1,93.8,0.3,99.9,0 M79.9,0h-10
		C48.9,1.4,29.3,20.2,0,67.1c0,2.6,0,5.2,0,7.9c0,2.8,0,5.6,0,8.4C25.8,41.4,50.2,1.7,79.9,0 M59.9,0h-10C36.4,0.9,22.7,7.6,0,37.4
		c0,4.5,0,9.2,0,14.2C24.5,15.6,41.3,1.1,59.9,0 M39.9,0h-10C20.7,0.6,13.1,3.1,0,14.6c0,3,0,6.5,0,10.3C15.7,7.6,26.5,0.8,39.9,0
		 M20,0H10C5,0.3,5,0.3,0,1.8c0,1.2,0,2.8,0,5C8.2,1.9,12.3,0.5,20,0"/>
</g>
</svg>
